X:159
T:Scotch Firk,A. (p)1657.PLFD.160
M:6/4
L:1/4
Q:3/4=75
S:Playford, Dancing Master,Supplement to 3rd Ed.,1657
O:England
H:1657.
Z:Chris Partington.
K:F
B2GB>cd|c>BA/G/F3|B(c/B/)(A/G/)Bcd|c3f2g|
fdBdfd|c>BA/G/F3|f(g/f/)(d/c/)dfd|B3G3:|
